X: 1
T: Kevin and Marlene's strathspey
C: Rannie MacLellan
R: strathspey
S: handout for Wendy MacIsaac online workshop 2022-2-21
Z: 2022 John Chambers <jc:trillian.mit.edu>
M: C
L: 1/8
K: E
"^A"|: B |\
G<BB>G F>EE>F | G>Be<g f>ec<B | c<ee>c B<ce>G | F/F/F F>E G<FF>B |
G<BB>G F>EE>F | G>Be<g f>ec<B | c<ee>c B<ce>G | F/F/F G<F E2E :|
"^B"|: a |\
g<bb<g f>ee>g | a>fg>e f>ec<e | B<ee>c B>ce<f | g>e b<g f2f>a |
g<bb<g f>ee>g | a>fg>e f>ec<e | B<ee>c B>ce<G | F/F/F G<F E2E :|
